!!!COM: Corelli, Arcangelo
!!!OTL: 
!!!ONM: Opus 6, No. 11
!!!OMV: 1
!!!CDT: 1653/2/17/-1713/1/8/
!!!OCY: Italia
**kern	**kern	**kern	**kern	**kern	**kern	**kern
*clefC	*clefG	*clefG	*clefG	*clefC	*clefG	*clefG
*k[b-]	*k[b-]	*k[b-]	*k[b-]	*k[b-]	*k[b-]	*k[b-]
*F:	*F:	*F:	*F:	*F:	*F:	*F:
*M4/4	*M4/4	*M4/4	*M4/4	*M4/4	*M4/4	*M4/4
=1	=1	=1	=1	=1	=1	=1
8BB-	8d	4r	2b-	8BB-	4r	2b-
8C	8e-	.	.	8C	.	.
8D	8f	2b-	.	8D	2b-	.
8BB-	8d	.	.	8BB-	.	.
8E-	8g	.	[2cc	8E-	.	[2cc
8C	8e-	.	.	8C	.	.
8F	4f	4a	.	8F	4a	.
8FF	.	.	.	8FF	.	.
=2	=2	=2	=2	=2	=2	=2
8BB-	4f	2dd	8cc]	8BB-	2dd	8cc]
8C	.	.	8f	8C	.	8f
8D	4r	.	2b-	8D	.	2b-
8E	.	.	.	8E	.	.
8F	8f	2cc	.	8F	2cc	.
8C	8g	.	.	8C	.	.
[4F	8a	.	4a	[4F	.	4a
.	8f	.	.	.	.	.
=3	=3	=3	=3	=3	=3	=3
4F]	4g	2b-	2g	4F]	2b-	2g
4E	4c	.	.	4E	.	.
2F	2c	2a	2c	2F	2a	2c
=4	=4	=4	=4	=4	=4	=4
1r	1r	1r	1r	1r	1r	1r
=5	=5	=5	=5	=5	=5	=5
8F	8a	4r	2ff	8F	4r	2ff
8G	8b-	.	.	8G	.	.
8A	8cc	2ff	.	8A	2ff	.
8F	8a	.	.	8F	.	.
8B-	8dd	.	[2gg	8B-	.	[2gg
8G	8b-	.	.	8G	.	.
8c	4cc	4ee	.	8c	4ee	.
8C	.	.	.	8C	.	.
=6	=6	=6	=6	=6	=6	=6
8F	4cc	2aa	8gg]	8F	2aa	8gg]
8G	.	.	8cc	8G	.	8cc
8A	4r	.	2ff	8A	.	2ff
8B	.	.	.	8B	.	.
8c	8c	2gg	.	8c	2gg	.
8G	8d	.	.	8G	.	.
[4c	8e	.	4ee	[4c	.	4ee
.	8c	.	.	.	.	.
=7	=7	=7	=7	=7	=7	=7
4c]	4d	2ff	2dd	4c]	2ff	2dd
4B	4g	.	.	4B	.	.
2c	2g	2ee	2g	2c	2ee	2g
=8	=8	=8	=8	=8	=8	=8
1r	1r	1r	1r	1r	1r	1r
=9	=9	=9	=9	=9	=9	=9
8C	8e	4.cc	4r	8C	4.cc	4r
8D	8f	.	.	8D	.	.
8E	8g	.	4.gg	8E	.	4.gg
8C	8e	8b-	.	8C	8b-	.
8F	4c	[4a	.	8F	[4a	.
8G	.	.	8cc	8G	.	8cc
8A	4cc	16a]	[4ff	8A	16a]	[4ff
.	.	16cc	.	.	16cc	.
8F	.	16b-	.	8F	16b-	.
.	.	16a	.	.	16a	.
=10	=10	=10	=10	=10	=10	=10
4c	8r	8g	8ff]	4c	8g	8ff]
.	8c	8c	8ee	.	8c	8ee
8r	8e	4.cc	8ee	8r	4.cc	8ee
8C	8c	.	16dd	8C	.	16dd
.	.	.	16cc	.	.	16cc
4G	8r	.	8dd	4G	.	8dd
.	8g	8b-	8g	.	8b-	8g
8r	8b-	8b-	[4gg	8r	8b-	[4gg
8G	8g	16a	.	8G	16a	.
.	.	16g	.	.	16g	.
=11	=11	=11	=11	=11	=11	=11
4d	8r	8a	8gg]	4d	8a	8gg]
.	8d	8d	8ff	.	8d	8ff
8r	8f	4.dd	8ff	8r	4.dd	8ff
8D	8d	.	16ee	8D	.	16ee
.	.	.	16dd	.	.	16dd
4A	8r	.	8ee	4A	.	8ee
.	8a	8cc	8a	.	8cc	8a
8r	8cc	8cc	[4aa	8r	8cc	[4aa
8AA	8a	16b-	.	8AA	16b-	.
.	.	16a	.	.	16a	.
=12	=12	=12	=12	=12	=12	=12
8D	4f	4.b-	8aa]	8D	4.b-	8aa]
8D	.	.	16gg	8D	.	16gg
.	.	.	16ff	.	.	16ff
8E	4c	.	4.gg	8E	.	4.gg
8C	.	16a	.	8C	16a	.
.	.	16g	.	.	16g	.
8F	4c	4.a	.	8F	4.a	.
8G	.	.	8cc	8G	.	8cc
8A	[4cc	.	[4ff	8A	.	[4ff
8F	.	8cc	.	8F	8cc	.
=13	=13	=13	=13	=13	=13	=13
8B-	8cc]	4.dd	8ff]	8B-	4.dd	8ff]
8A	8cc	.	8f	8A	.	8f
8G	8b-	.	2b-	8G	.	2b-
8F	8a	8dd	.	8F	8dd	.
8E	4g	8cc	.	8E	8cc	.
8C	.	8e	.	8C	8e	.
8F	8r	[4f	8a	8F	[4f	8a
8BB-	8d	.	8g	8BB-	.	8g
=14	=14	=14	=14	=14	=14	=14
8C	4.c	4f]	4a	8C	4f]	4a
8BB-	.	.	.	8BB-	.	.
8C	.	4e	4g	8C	4e	4g
8CC	8c	.	.	8CC	.	.
4F	4A	4f	8f	4F	4f	8f
.	.	.	8ff	.	.	8ff
4E-	4r	8r	4a	4E-	8r	4a
.	.	8ff	.	.	8ff	.
=15	=15	=15	=15	=15	=15	=15
4D	4f	4b-	8r	4D	4b-	8r
.	.	.	8ff	.	.	8ff
4AA	4f	8r	4cc	4AA	8r	4cc
.	.	8ff	.	.	8ff	.
4B-	4f	4dd	8r	4B-	4dd	8r
.	.	.	8ff	.	.	8ff
4A	4f	8r	8cc	4A	8r	8cc
.	.	8ff	8dd	.	8ff	8dd
=16	=16	=16	=16	=16	=16	=16
8G	4g	4b-	4ee-	8G	4b-	4ee-
8g	.	.	.	8g	.	.
8f	4d	4a	4dd	8f	4a	4dd
8F	.	.	.	8F	.	.
8E-	4e-	4g	4cc	8E-	4g	4cc
8e-	.	.	.	8e-	.	.
8d	8B-	4f	4b-	8d	4f	4b-
8D	8b-	.	.	8D	.	.
=17	=17	=17	=17	=17	=17	=17
8C	4cc	8g	4ee-	8C	8g	4ee-
8c	.	8a	.	8c	8a	.
8B-	4f	4b-	4dd	8B-	4b-	4dd
8BB-	.	.	.	8BB-	.	.
4F	4f	4a	8cc	4F	4a	8cc
.	.	.	8f	.	.	8f
8d	8r	4r	[4ff	8d	4r	[4ff
8D	8dd	.	.	8D	.	.
=18	=18	=18	=18	=18	=18	=18
8G	8dd	4.b-	8ff]	8G	4.b-	8ff]
8GG	8g	.	16ee-	8GG	.	16ee-
.	.	.	16dd	.	.	16dd
8c	8r	.	4.ee-	8c	.	4.ee-
8C	8cc	16a	.	8C	16a	.
.	.	16g	.	.	16g	.
8F	8cc	4.a	.	8F	4.a	.
8FF	8f	.	16dd	8FF	.	16dd
.	.	.	16cc	.	.	16cc
8B-	8r	.	[4dd	8B-	.	[4dd
8BB-	8b-	16g	.	8BB-	16g	.
.	.	16f	.	.	16f	.
=19	=19	=19	=19	=19	=19	=19
8E-	8b-	4g	8dd]	8E-	4g	8dd]
8EE-	8e-	.	8g	8EE-	.	8g
2e-	8r	4gg	8cc	2e-	4gg	8cc
.	8e-	.	8b-	.	.	8b-
.	4f	8cc	8a	.	8cc	8a
.	.	8a	8f	.	8a	8f
8d	4B-	[4b-	8ff	8d	[4b-	8ff
8e-	.	.	8gg	8e-	.	8gg
=20	=20	=20	=20	=20	=20	=20
4f	4.f	4b-]	4dd	4f	4b-]	4dd
4F	.	4a	4cc	4F	4a	4cc
.	8f	.	.	.	.	.
4B-	4d	4b-	4b-	4B-	4b-	4b-
4A	4f	4r	8cc	4A	4r	8cc
.	.	.	8dd	.	.	8dd
=21	=21	=21	=21	=21	=21	=21
4G	4g	4b-	4ee-	4G	4b-	4ee-
4F	4d	4a	4dd	4F	4a	4dd
4E-	4e-	4g	4cc	4E-	4g	4cc
4D	8B-	4f	4b-	4D	4f	4b-
.	8b-	.	.	.	.	.
=22	=22	=22	=22	=22	=22	=22
4C	4cc	8g	4ee-	4C	8g	4ee-
.	.	8a	.	.	8a	.
4BB-	4f	4b-	4dd	4BB-	4b-	4dd
4F	4f	4a	4cc	4F	4a	4cc
8r	8r	8r	8r	8r	8r	8r
8D	8f	8dd	8ff	8D	8dd	8ff
=23	=23	=23	=23	=23	=23	=23
8E-	4B-	8g	4ee-	8E-	8g	4ee-
8F	.	8a	.	8F	8a	.
8G	8r	2b-	8dd	8G	2b-	8dd
8E-	8g	.	8cc	8E-	.	8cc
4F	4f	.	4dd	4F	.	4dd
4FF	4f	4a	4cc	4FF	4a	4cc
=24	=24	=24	=24	=24	=24	=24
4BB-	4d	4b-	4b-	4BB-	4b-	4b-
2E-	8r	8r	8r	2E-	8r	8r
.	8e-	8B-	8g	.	8B-	8g
.	4c	4f	4A	.	4f	4A
8D	8d	[4B-	8f	8D	[4B-	8f
8E-	8B-	.	8g	8E-	.	8g
=25	=25	=25	=25	=25	=25	=25
4F	2f	4B-]	4d	4F	4B-]	4d
4FF	.	4A	8.c	4FF	4A	8.c
.	.	.	16f	.	.	16f
2BB-	2f	2B-	2d	2BB-	2B-	2d
==	==	==	==	==	==	==
*-	*-	*-	*-	*-	*-	*-
!!!RWG: This file only contains pitch and duration data.
!!!RWG: Transposing instruments are not transposed.
!!!RWG: Durations of rests and tied notes may be interpreted.
!!!RWG: Key is interpreted using the Humdrum key tool.
!!!SCA: 
!!!YOR: Chrysander Edition
!!!AGN: concerto grosso
!!!AFT: stage1
!!!ENC: F. Bennion
!!!END: 1997/04/15
!!!AST: baroque
!!!YEC: Copyright 1994, Center for Computer Assisted Research in the Humanities
!!!YEM: Rights to all derivative electronic formats reserved.
!!!YEM: Refer to licensing agreement for further details.
!!!YEN: United States of America
!!!EED: W.B. Hewlett
!!!KEY: 223791831
!!!EMD: Converted from MuseData to Humdrum Aug 2, 1999, by Bret Aarden using muse2kern.
!!!VTS: 4157441314
